22x22/apps/freeorion.svg

<svg xmlns="http://www.w3.org/2000/svg" width="22" height="22" version="1.1">
 <circle style="opacity:0.2" cx="11" cy="11.5" r="10"/>
 <path style="opacity:0.2" d="M 9.580078,4.1464844 C 8.3982639,4.3927147 7,5.332932 6.6304625,6.2737936 l 0.00586,0.019531 v 0 c 0,0 1.792335,-0.1311197 2.7543025,-0.2503558 z m 2.839844,0.00781 0.263672,2.6328125 c 0.945832,0.6033585 1.661264,1.50728 2.03125,2.5664071 l 3.171875,0.421875 C 17.383314,6.9611273 15.219088,4.735817 12.419922,4.1542969 Z M 5.3998917,7.5712359 C 4.976775,8.2866419 4.257215,8.957481 4.109375,9.775391 L 5.1953125,9.630859 C 5.3908711,8.9512308 5.3998917,7.5712359 5.3998917,7.5712359 Z M 4.1132812,12.224609 c 0.5034047,2.814264 2.6676308,5.039574 5.4667968,5.621094 L 9.390625,15.958984 C 7.3968713,15.714495 5.7429848,14.300614 5.1914062,12.369141 Z m 13.7773438,0 -3.175781,0.421875 c -0.369224,1.06057 -1.084733,1.965963 -2.03125,2.570313 l -0.263672,2.636719 c 2.802976,-0.581199 4.969627,-2.810505 5.470703,-5.628907 z"/>
 <circle style="fill:#235b92" cx="11" cy="11" r="10"/>
 <path style="opacity:0.2" d="M 9.451181,4.6319697 C 8.4798248,4.853901 7.5665785,5.2793133 6.771715,5.8801288 L 6.6637316,6.079157 C 7.3809997,5.6133225 8.5159199,5.6604854 9.366489,5.5710005 Z m 3.097638,0.0032 0.152447,1.6800921 c 1.28432,0.7712779 2.192151,2.0397134 2.507964,3.5041632 L 17.910928,10.137 C 17.36841,7.4042648 15.266693,5.247774 12.548819,4.635146 Z M 4.9052983,7.9911175 C 4.5193228,8.656926 4.2450267,9.381468 4.0933066,10.135962 l 0.4806315,-0.05611 C 4.5770281,9.262977 4.9052983,7.9911153 4.9052983,7.9911153 Z"/>
 <path style="opacity:0.1;fill:#f4f4f7" d="M 11,1 A 10,10 0 0 0 1,11 10,10 0 0 0 1.0107422,11.291016 10,10 0 0 1 11,1.5 10,10 0 0 1 20.989258,11.208985 10,10 0 0 0 21,11 10,10 0 0 0 11,1 Z"/>
 <path style="fill:#f4f4f7" d="M 9.451181,4.1324647 C 8.4798248,4.354396 7.5665785,4.7798083 6.771715,5.3806238 L 6.6637316,5.579652 C 7.3809997,5.1138175 8.5159199,5.1609804 9.366489,5.0714955 Z m 3.097638,0.0032 0.152447,1.6800921 c 1.28432,0.7712779 2.192151,2.0397134 2.507964,3.5041632 l 2.701698,0.317575 C 17.36841,6.9047598 15.266693,4.748269 12.548819,4.135641 Z M 4.9052983,7.4916125 C 4.5193228,8.157421 4.2450267,8.8819632 4.0933066,9.636457 L 4.5739381,9.580347 C 4.5770276,8.7634725 4.9052983,7.4916103 4.9052983,7.4916103 Z"/>
 <path style="fill:#363636" d="m 4.0898438,12.363281 c 0.5425176,2.732733 2.6434541,4.889325 5.3613282,5.501953 L 9.267578,15.833984 C 7.2963437,15.596295 5.6122978,14.300178 4.8789062,12.455078 Z m 13.8164062,0 -3.072266,0.361328 c -0.437726,0.951811 -1.141915,1.756437 -2.027343,2.316407 l -0.257813,2.826172 c 2.716833,-0.614416 4.816297,-2.771531 5.357422,-5.503907 z"/>
 <path style="opacity:0.2" d="m 11,0.5 -1,10 -7.5,1 7.5,1 1,9.5 1,-9.5 7.5,-1 -7.5,-1 z"/>
 <path style="fill:#f75151" d="M 11,0 10,10 2.5,11 10,12 11,22 12,12 19.5,11 12,10 Z"/>
 <path style="opacity:0.1" d="m 4.0898438,12.363281 c 0.035228,0.177448 0.094466,0.345254 0.1425781,0.517578 l 0.6464843,0.07422 c 0.7333917,1.8451 2.4174376,3.141217 4.3886718,3.378906 l 0.136719,1.517578 c 0.01601,0.0037 0.03082,0.01005 0.04687,0.01367 L 9.267573,15.833983 C 7.2963438,15.596295 5.6122979,14.300178 4.8789062,12.455078 Z m 13.8164062,0 -3.072266,0.361328 c -0.437726,0.951811 -1.141915,1.756437 -2.027343,2.316407 l -0.257813,2.826172 c 0.01605,-0.0036 0.03087,-0.0099 0.04687,-0.01367 l 0.210938,-2.3125 c 0.885428,-0.55997 1.589617,-1.364596 2.027343,-2.316407 l 2.929688,-0.34375 c 0.04805,-0.172392 0.107423,-0.340064 0.142578,-0.517578 z"/>
</svg>

<svg xmlns="http://www.w3.org/2000/svg" width="22" height="22"><circle style="opacity:.2" cx="11" cy="11.5" r="10"/><path style="opacity:.2" d="M9.58 4.146C8.398 4.393 7 5.333 6.63 6.274l.006.02s1.793-.132 2.755-.251zm2.84.008.264 2.633a5 5 0 0 1 2.03 2.567l3.173.421a7 7 0 0 0-5.467-5.62zM5.4 7.571c-.423.716-1.143 1.386-1.29 2.204l1.085-.144c.196-.68.205-2.06.205-2.06zm-1.287 4.654a7 7 0 0 0 5.467 5.62l-.19-1.886a5 5 0 0 1-4.199-3.59zm13.778 0-3.176.421a5 5 0 0 1-2.031 2.57l-.264 2.638a7 7 0 0 0 5.47-5.63z"/><circle style="fill:#235b92" cx="11" cy="11" r="10"/><path style="opacity:.2" d="M9.451 4.632a7.046 7.046 0 0 0-2.68 1.248l-.107.2c.717-.467 1.852-.42 2.702-.509zm3.098.003.152 1.68A5.42 5.42 0 0 1 15.21 9.82l2.702.318a7.046 7.046 0 0 0-5.362-5.502zM4.905 7.991a7.046 7.046 0 0 0-.812 2.145l.48-.056c.004-.817.332-2.089.332-2.089z"/><path style="opacity:.1;fill:#f4f4f7" d="M11 1A10 10 0 0 0 1 11a10 10 0 0 0 .01.291A10 10 0 0 1 11 1.5a10 10 0 0 1 9.99 9.709A10 10 0 0 0 21 11 10 10 0 0 0 11 1z"/><path style="fill:#f4f4f7" d="M9.451 4.132a7.046 7.046 0 0 0-2.68 1.249l-.107.199c.717-.466 1.852-.419 2.702-.509zm3.098.004.152 1.68A5.42 5.42 0 0 1 15.21 9.32l2.702.317a7.046 7.046 0 0 0-5.362-5.501zM4.905 7.492a7.046 7.046 0 0 0-.812 2.144l.48-.056c.004-.817.332-2.088.332-2.088z"/><path style="fill:#363636" d="M4.09 12.363a7.046 7.046 0 0 0 5.361 5.502l-.183-2.031a5.42 5.42 0 0 1-4.39-3.379zm13.816 0-3.072.362a5.42 5.42 0 0 1-2.027 2.316l-.258 2.826a7.046 7.046 0 0 0 5.357-5.504z"/><path style="opacity:.2" d="m11 .5-1 10-7.5 1 7.5 1 1 9.5 1-9.5 7.5-1-7.5-1z"/><path style="fill:#f75151" d="m11 0-1 10-7.5 1 7.5 1 1 10 1-10 7.5-1-7.5-1z"/><path style="opacity:.1" d="M4.09 12.363c.035.178.094.346.142.518l.647.074a5.42 5.42 0 0 0 4.389 3.379l.136 1.518c.016.003.031.01.047.013l-.183-2.031a5.42 5.42 0 0 1-4.39-3.379zm13.816 0-3.072.362a5.42 5.42 0 0 1-2.027 2.316l-.258 2.826c.016-.003.03-.01.047-.013l.21-2.313a5.42 5.42 0 0 0 2.028-2.316l2.93-.344c.048-.173.107-.34.142-.518z"/></svg>
